app/dist/common/images/valley-national-bancorp.svg

<svg height="18" width="18" xmlns="http://www.w3.org/2000/svg"><path d="m0 0h18v18h-18z" fill="#f0f3fa"/><path d="m8 9-3-5-2 3 1 2-1 2 2 3z" fill="#fbd80e"/><path d="m6.3 4.006h5c.222-.031.794.098 1.303.86l1.615 2.848a.558.558 0 0 1 .021.037l-.02-.037c-.145-.234-.631-.714-1.617-.714h-4.602zm5.006 9.99h-5.006l1.7-2.996h4.61c1.044 0 1.508-.618 1.59-.77l-1.59 2.906c-.51.762-1.082.89-1.304.86z" fill="#002a4e"/><path d="m11 9-1-2h2.997c1.24 0 1.835 1.35 2.003 2-.613 1.56-1.574 2.038-2.003 2.002h-2.997l1-2.001z" fill="#778c9a"/></svg>

<!-- by TradingView --><svg width="18" height="18" xmlns="http://www.w3.org/2000/svg"><path fill="#F0F3FA" d="M0 0h18v18H0z"/><path d="M8 9L5 4 3 7l1 2-1 2 2 3 3-5z" fill="#FBD80E"/><path d="M6.3 4.006h5c.222-.031.794.098 1.303.86l1.615 2.848a.558.558 0 01.021.037l-.02-.037C14.074 7.48 13.588 7 12.602 7H8L6.3 4.006zM11.306 13.996H6.3L8 11h4.61c1.044 0 1.508-.618 1.59-.77l-1.59 2.906c-.51.762-1.082.89-1.304.86z" fill="#002A4E"/><path d="M11 9l-1-2h2.997c1.24 0 1.835 1.35 2.003 2-.613 1.56-1.574 2.038-2.003 2.002H10l1-2.001z" fill="#778C9A"/></svg>
